packages/landing-ui/public/pencil-create.svg

<svg width="84" height="87" viewBox="0 0 84 87" fill="none" xmlns="http://www.w3.org/2000/svg">
<path d="M1.47375 86.952H11.4115C11.7972 86.9657 12.1721 86.8239 12.4513 86.5576C12.7305 86.2914 12.891 85.9237 12.8953 85.538V81.7939H70.3714V85.538C70.3765 85.9237 70.5362 86.2914 70.8154 86.5576C71.0946 86.8239 71.4695 86.9657 71.8552 86.952H81.793C82.1779 86.9657 82.5514 86.8232 82.8292 86.5569C83.1062 86.2899 83.2645 85.923 83.2667 85.538V74.9835C83.2674 74.1682 82.6083 73.5069 81.793 73.504H78.2928V13.4488H81.793C82.6083 13.4467 83.2674 12.7846 83.2667 11.9701V1.41492C83.2645 1.03065 83.1062 0.662935 82.8292 0.396682C82.5514 0.130429 82.1779 -0.0120523 81.793 0.000900581H71.8552C71.4695 -0.0127719 71.0946 0.12971 70.8154 0.395963C70.5362 0.662216 70.3765 1.02921 70.3714 1.41492V5.15902H12.8953V1.41492C12.891 1.02921 12.7305 0.662216 12.4513 0.395963C12.1721 0.12971 11.7972 -0.0127719 11.4115 0.000900581H1.47375C1.08948 -0.0120523 0.716005 0.130429 0.438238 0.396682C0.160471 0.662935 0.0028784 1.03065 0 1.41492V11.9701C0 12.7846 0.659156 13.4467 1.47375 13.4488H4.9739V73.504H1.47375C0.659156 73.5069 0 74.1682 0 74.9835V85.538C0.0028784 85.923 0.160471 86.2899 0.438238 86.5569C0.716005 86.8232 1.08948 86.9657 1.47375 86.952ZM80.3192 84.0045H73.3189V76.4515H80.3192V84.0045ZM73.3189 2.94839H80.3192V10.5013H73.3189V2.94839ZM2.94749 2.94839H9.94779V10.5013H2.94749V2.94839ZM7.92139 13.4488H11.4115C12.2289 13.4474 12.891 12.7868 12.8953 11.9701V8.10651H70.3714V11.9701C70.3757 12.7868 71.0385 13.4474 71.8552 13.4488H75.3453V73.504H71.8552C71.0385 73.5062 70.3757 74.1668 70.3714 74.9835V78.8464H12.8953V74.9835C12.891 74.1668 12.2289 73.5062 11.4115 73.504H7.92139V13.4488ZM2.94749 76.4515H9.94779V84.0045H2.94749V76.4515Z" fill="#687C94"/>
<path d="M17.6886 68.895C17.8001 68.895 17.9116 68.882 18.0203 68.8568L34.2963 65.094C34.8295 64.9717 35.3167 64.7018 35.7031 64.3147L65.7825 34.1734C67.4736 32.4751 67.4722 29.7284 65.7796 28.0316L57.0789 19.3309C55.3814 17.6383 52.6354 17.6369 50.9364 19.3273L20.7958 49.4081C20.4094 49.7938 20.1388 50.2803 20.0158 50.8128L16.253 67.0902C16.1515 67.5277 16.2558 67.9875 16.535 68.3394C16.815 68.6906 17.2395 68.8957 17.6886 68.8957V68.895ZM20.4921 61.8378L23.272 64.6176L19.656 65.4538L20.4921 61.8378ZM22.3984 53.5919L31.5172 62.7107L26.657 63.8347L21.2744 58.4521L22.3984 53.5919ZM23.6742 50.6998L47.909 26.5132L52.2115 30.815L28.0012 55.0253L23.6742 50.6998ZM34.4121 61.4363L30.0859 57.11L54.2955 32.899L58.5973 37.2008L34.4121 61.4363ZM53.0182 21.4141C53.5651 20.8701 54.4481 20.8708 54.9942 21.4148L63.695 30.1163C64.239 30.6617 64.2397 31.5454 63.6957 32.0916L60.6791 35.1146L49.9944 24.43L53.0182 21.4141Z" fill="#F6376D"/>
</svg>

<svg width="84" height="87" fill="none" xmlns="http://www.w3.org/2000/svg"><path d="M1.474 86.952h9.938a1.432 1.432 0 001.483-1.414v-3.744h57.476v3.744a1.435 1.435 0 001.484 1.414h9.938a1.424 1.424 0 001.474-1.414V74.984c0-.816-.659-1.477-1.474-1.48h-3.5V13.449h3.5a1.478 1.478 0 001.474-1.479V1.415A1.425 1.425 0 0081.793 0h-9.938a1.433 1.433 0 00-1.484 1.414v3.744H12.895V1.415A1.43 1.43 0 0011.412 0H1.473A1.427 1.427 0 000 1.415V11.97c0 .815.66 1.477 1.474 1.479h3.5v60.055h-3.5A1.48 1.48 0 000 74.984v10.554a1.427 1.427 0 001.474 1.414zm78.845-2.948h-7v-7.553h7v7.553zm-7-81.056h7v7.553h-7V2.948zm-70.372 0h7v7.553h-7V2.948zm4.974 10.5h3.49a1.486 1.486 0 001.484-1.478V8.107h57.476v3.863a1.487 1.487 0 001.484 1.479h3.49v60.055h-3.49a1.488 1.488 0 00-1.484 1.48v3.862H12.895v-3.862a1.487 1.487 0 00-1.483-1.48h-3.49V13.449zM2.947 76.452h7v7.553h-7v-7.553z" fill="#687C94"/><path d="M17.689 68.895c.111 0 .223-.013.331-.038l16.276-3.763a2.904 2.904 0 001.407-.78l30.08-30.14a4.35 4.35 0 00-.003-6.142l-8.701-8.701a4.352 4.352 0 00-6.143-.004l-30.14 30.081a2.91 2.91 0 00-.78 1.405L16.253 67.09a1.474 1.474 0 001.436 1.806v-.001zm2.803-7.057l2.78 2.78-3.616.836.836-3.616zm1.906-8.246l9.12 9.119-4.861 1.124-5.383-5.383 1.124-4.86zm1.276-2.892L47.91 26.513l4.303 4.302-24.21 24.21-4.328-4.325zm10.738 10.736l-4.326-4.326 24.21-24.211 4.301 4.302-24.185 24.235zm18.606-40.022a1.4 1.4 0 011.976 0l8.701 8.702a1.4 1.4 0 010 1.976l-3.016 3.023L49.994 24.43l3.024-3.016z" fill="#F6376D"/></svg>
